!!!ONB: MCCC : IJH0455_02 : Extracted Monophonic Melody
!!!COM: Haydn, Joseph
!!!OPR: String Quartet in F major
!!!OMV: 2
!!!SCT: Hob.III:82 ; Op.77 No.2
!!!ODT: 1799///
**kern
*thru
*k[b-]
*F:
*clefF
*M3/4
8cc
8a
=1
4f
8ff
8ee
4ff
=2
4gg
4cc
4gg
=3
4cc
4gg
4cc
=4
4aa
4ff
4r
=5
2.r
=6
4r
8aa
8ff
4cc
=7
8aa
8ff
4cc
8aa
8ff
=8
4cc
8aa
8ff
4a
=9
8aa
8ff
4a
8aa
8ff
=10
8dd
8ff
4aa
8ff
8dd
=11
8ee
8gg
8ee
8cc
8b
8dd
=12
4cc
4r
8g
8cc
=13
2.ee[
=14
2.ee]
=15
2.ee-[
=16
2ee-]
8e-
8ee-
=17
2.ee-
=18
2dd
4cc[
=19
4cc]
4dd
4b
=20
4cc
4r
4gg
=21
4b
4gg
4b
=22
4ee
4g
4ccc
=23
4bb
4fff
4bb
=24
4ccc
4r
4r
=25
2.r
=26
4r
4r
8ccc
8aa
=27
4ff
8ccc
8aa
4ff
=28
4ddd
4bb-
4r
=29
4r
8ddd
8aa
4ff#
=30
4r
4r
8ddd
8bb-
=31
4gg
2r
=32
8bb-
8gg
4ee
4r
=33
4r
8ccc
8aa
8ff
8cc
=34
8b-
8cc
8b-
8g
8a
8f
=35
8e
8c
8B
8c
8e
8g
=36
2b-
16b-
16a
16b-
16cc
=37
2.dd-
=38
4cc
4r
4b-
=39
2.ff
=40
2.ee
=41
2.r
=42
2.r
=43
2.f
=44
2e
8cc
8a
=45
4f
8ff
8ee
4ff
=46
4gg
4cc
4gg
=47
4cc
4gg
4cc
=48
4aa
4ff
4r
=49
2.r
=50
4r
8aa
8ff
4cc
=51
8aa
8ff
4cc
8aa
8ff
=52
4cc
8aa
8ff
4cc
=53
8bb-
8ff
4b-
8bb-
8ff
=54
8bb
8ff
8b
8ff
8bb
8ff
=55
8ccc
8aa
8ff
8aa
8gg
8ee
=56
4ff
4r
8cc
8ff
=57
2.aa[
=58
2.aa]
=59
2.aa-[
=60
2aa-]
8cc
8aa-
=61
2.aa-
=62
2.gg[
=63
4gg]
2ff
=64
4ee
4ff
4b
=65
4cc
4ee
4gg
=66
4ccc
4r
4cc
=67
4f
8ff
8ee
4ff
=68
4gg
4cc
4gg
=69
4cc
4gg
4cc
=70
4aa
4ff
4bb-
=71
4ff
4ccc
4ff
=72
2ddd
16ccc
16bb-
16aa
16gg
=73
4ff
4gg
4ee
=74
4ff
4r
4cc
=75
4e
4cc
4e
=76
4a
4c
4ccc
=77
4ee
4ccc
4ee
=78
4aa
4r
4r
=79
*D-:
4r
4r
4f
=80
2f
4g-
=81
2a-
4dd-
=82
2cc
4b-
=83
2a-
4a-
=84
2a-
4g-
=85
2f
4a-
=86
8g
8a-
8b-
8cc
8dd-
8b-
=87
4a-
4a-
4a-
=88
8g
8a-
8b-
8cc
8dd-
8b-
=89
4a-
4r
4e-
=90
4f-
4e-
4e-
=91
4e-
4r
4e-
=92
4f-
4e-
4e-
=93
4e-
4r
4e-
=94
2e-
4f
=95
4a-
4g-
4f
=96
2e-
4f
=97
4a-
4g-
4r
=98
4g-
4f
4r
=99
4f
4e-
4b-
=100
4f
4e-
4f
=101
2f
4g-
=102
2a-
4dd-
=103
2cc
4b-
=104
2a-
4a-
=105
2a-
4g-
=106
2f
8a-
8f
=107
8e-
8f
8g-
8a-
8b-
8g-
=108
4e-
4e-
4e-
=109
4f
4g-
4e-
=110
2d-
4a-
=111
8c
8d-
8e-
8f
8g-
8e-
=112
4d-
4d-
4d-
=113
8c
8d-
8e-
8f
8g-
8e-
=114
4d-
4r
4f
=115
2.g-
=116
4f
4f
4f
=117
2.g-
=118
4f
4r
8a-
8f
=119
4d-
8dd-
8cc
4dd-
=120
4ee-
4a-
4r
=121
4r
4r
8cc
8a
=122
4f
8cc
8b-
4cc
=123
4dd-
4b-
4r
=124
4r
4r
8dd-
8b-
=125
8g
8b-
8dd-
8b-
8g
8f
=126
4e
4cc
4r
=127
2.r
==
*-
